X: 09106
T: SSISSY'S HORNPIPE
C: Bob McQuillen 20 Apr 92
B: Bob's Note Book 9 p.106
R: hornpipe, reel
Z: 2017 John Chambers <jc:trillian.mit.edu>
L: 1/8
M: C
K: G
GE |\
D2GF G2BG | AGAB G2Bd | edBd gdBG | AGBG AGEG |
D2GF G2BG | AGAB G2Bd | cedc BGAG | D2G2 G2 :|
|: Bc |\
d2gf g2dc | BcdB G2Bc | dBdg edBd | c2A2 AcBA |
G2DE DGBA | G2DE D2GE | DGBd cAFG | A2G2 G2 :|
%%begintext align
%% ssissy ffolliott (that's the way
%% she writes it) is a fine fiddler and dancer from South Hamilton,
%% and she's awfully nice to me when I'm down that way.
%% Once, when it was a real hot night, she brought me a
%% big glass of ice cold ginger ale during the break.
%% Boy, did that ever taste good! Thanks a lot, Ssissy!
%%endtext

%%sep 1 1 500

%%sep 1 1 500

